packages/core/src/svgs/tokens/mono/GIV.svg

<svg width="24" height="24" viewBox="0 0 24 24" fill="none" xmlns="http://www.w3.org/2000/svg">
<path d="M12.2468 2.00146L12.5217 2.0202L13.0654 2.06393C14.6587 2.23343 16.1873 2.78655 17.5202 3.67594L16.5268 4.66939L16.1081 5.08175C16.0956 5.08833 16.0817 5.09175 16.0676 5.09175C16.0534 5.09175 16.0394 5.08833 16.0269 5.08175C14.5001 4.18763 12.7199 3.82509 10.965 4.05087C9.21 4.27666 7.57955 5.07803 6.32877 6.32952C5.078 7.58101 4.27756 9.2119 4.05277 10.967C3.828 12.722 4.19156 14.5021 5.08654 16.0284C5.09903 16.0533 5.09903 16.0909 5.08654 16.1033L3.67448 17.5154H3.66824L3.6245 17.4529L3.53703 17.3217C2.61972 15.8664 2.09422 14.1987 2.01153 12.4805C1.92886 10.7622 2.2918 9.05184 3.06513 7.51523C3.83846 5.97863 4.99592 4.66803 6.42515 3.7107C7.85439 2.75337 9.50683 2.18178 11.2222 2.05144L11.6595 2.01396L11.7533 2.00146H12.2468ZM21.9939 12.2421C21.9939 12.3296 21.9939 12.4171 21.9813 12.5107C21.9157 14.0252 21.5011 15.5041 20.7694 16.8318C20.0378 18.1595 19.0092 19.3002 17.7638 20.1645C16.0021 21.4428 13.859 22.086 11.6845 21.9891C9.1874 21.9255 6.8081 20.9134 5.03031 19.1586C5.01156 19.1399 5.01156 19.0774 5.03031 19.0587C7.34834 16.7344 9.67259 14.4039 12.0032 12.0858C12.058 12.0358 12.129 12.0071 12.203 12.0046H22V12.2421H21.9939ZM17.4327 7.05615C17.1162 7.43976 16.9651 7.9334 17.0126 8.42845C17.06 8.92352 17.3021 9.37941 17.6858 9.69592C18.0694 10.0124 18.563 10.1636 19.0581 10.1161C19.5531 10.0687 20.0091 9.82655 20.3256 9.44298C20.6421 9.05846 20.7929 8.56403 20.7449 8.06838C20.6968 7.57275 20.4539 7.11647 20.0695 6.79998C19.685 6.48348 19.1905 6.33264 18.6948 6.38069C18.1993 6.42873 17.743 6.6717 17.4265 7.05615H17.4327Z" fill="white"/>
</svg>

<svg xmlns="http://www.w3.org/2000/svg" width="24" height="24" fill="none" viewBox="0 0 24 24">
    <path fill="#fff" d="m12.247 2.001.275.02.543.043a9.9 9.9 0 0 1 4.455 1.612l-.993.993-.419.413a.09.09 0 0 1-.081 0 7.997 7.997 0 0 0-10.94 10.946c.012.025.012.063 0 .075l-1.413 1.412h-.006l-.044-.062-.087-.131a9.98 9.98 0 0 1 7.685-15.27l.438-.038.093-.013zm9.747 10.241c0 .088 0 .175-.013.269a9.83 9.83 0 0 1-4.217 7.654 9.62 9.62 0 0 1-6.08 1.824 9.83 9.83 0 0 1-6.654-2.83c-.018-.02-.018-.082 0-.1 2.318-2.325 4.643-4.655 6.973-6.973a.3.3 0 0 1 .2-.081H22v.237zm-4.561-5.186A1.875 1.875 0 1 0 20.07 6.8a1.88 1.88 0 0 0-2.643.256z"/>
</svg>
